X: 533
T:Kelso Hiring Fair
T:Victoria Waltz
D:Tom Hughes, Border Fiddler
N:Simplified transcription
Z:https://nigelgatherer.com/
L:1/8
M:3/4
K:C
G>F |: E2  [E2C2]  [E2C2]  | [E2G,2] [E2C2] [E2C2] | [E2G,2] [E2C2] [E2C2] | G>^F A>G =F>D |
[D2G,2] [D2B,2] [D2B,2] | [D2G,2] [D2B,2] [D2B,2] | G>^F A>G F>G | E2 [E2C2] [E2C2] | 
[E2G,2] [E2C2] [E2C2] | [E2G,2] [E2C2] [E2C2] | G>^F A>G =F>D | [D2G,2] [D2B,2] [D2B,2] | 
[D2G,2] [D2B,2] [D2B,2] | G>^F A>G (3=FED |1  C3 EG>F :|2 C4 ||
K:D
A>d |: f3 ff>e | d4 A2 | BA G2 F2  | A,2 [E2C2] [E2C2] |
g3 ag>f | e3 dc>B | A2 G2 E2 | F2 D2 D2 |
f3 ff>e | d4  A2 | BA G2 F2  | [E2C2] [E2C2] |
g3 ag>f | e3 dc>B | A2 G2 A,2 | D4 ||
A2  | d2 F>d F>d | c2 G>c G>c | B2 G>B G>B | A2 F>A F>A  |
d2 F>d F>d | c2 G>A B2 | A2 G2 C2 | D4 :|
K:G
Bc  | d4 c2 | e4 d2 | b6 | b4 c'2 | b4 a2 | B4 f2 | 
g>f g>a b>g | d2 B2 Bc  | d4 c2 | e4 d2 | b6 | 
b4 c'2 | b4 a2 | B4 f2 | g>f g>a b>a | g4 || 
d>c | B z [B,D] z [B,D] z | B z [B,D] z [B,D] z | d>^c e>d =c>B | c z [CE] z [CE] z |
c z [CE] z [CE] z | B>A d>c B>A | B z [B,D] z [B,D] z | B z [B,D] z [B,D] z | d>^c e>d =c>B | 
c z [CE] z [CE] z | c z [CE] z [CE] z | B>A d>c B>A | [G4B4] :|
G>F |: E2  [E2C2]  [E2C2]  | [E2G,2] [E2C2] [E2C2] | [E2G,2] [E2C2] [E2C2] | G>^F A>G =F>D |
[D2G,2] [D2B,2] [D2B,2] | [D2G,2] [D2B,2] [D2B,2] | G>^F A>G F>G | E2 [E2C2] [E2C2] | 
[E2G,2] [E2C2] [E2C2] | [E2G,2] [E2C2] [E2C2] | G>^F A>G =F>D | [D2G,2] [D2B,2] [D2B,2] | 
[D2G,2] [D2B,2] [D2B,2] | G>^F A>G (3=FED | [C4E4] ||

